svg/fluentui-system-icons/ic_fluent_vehicle_car_collision_16_regular.svg

<svg width="16" height="16" viewBox="0 0 16 16" fill="none" xmlns="http://www.w3.org/2000/svg">
<path d="M8.89905 1.19877C8.76955 1.02724 8.54492 0.957653 8.34114 1.02594C8.13735 1.09423 8 1.28511 8 1.50003V3.50003C8 3.77617 8.22386 4.00003 8.5 4.00003C8.77614 4.00003 9 3.77617 9 3.50003V2.99216L9.61085 3.80129C9.74687 3.98146 9.98675 4.04814 10.1962 3.96402L11.6841 3.36649L11.0257 5.34192C10.9748 5.49439 11.0004 5.662 11.0944 5.79239C11.1884 5.92277 11.3393 6.00003 11.5 6.00003H13.0768L11.6922 7.1099C11.5738 7.20479 11.505 7.34831 11.505 7.50003C11.505 7.65175 11.5738 7.79527 11.6922 7.89016L13.0768 9.00003H11.5C11.2239 9.00003 11 9.22389 11 9.50003C11 9.77617 11.2239 10 11.5 10H14.5C14.7123 10 14.9014 9.86602 14.9717 9.66576C15.0421 9.46551 14.9783 9.24265 14.8127 9.1099L12.8044 7.50003L14.8127 5.89016C14.9783 5.75741 15.0421 5.53456 14.9717 5.3343C14.9014 5.13404 14.7123 5.00003 14.5 5.00003H12.1937L12.9743 2.65815C13.0359 2.47333 12.9846 2.26956 12.8428 2.13601C12.7009 2.00246 12.4944 1.96345 12.3137 2.03605L10.1785 2.89351L8.89905 1.19877ZM7.5 11C7.77614 11 8 10.7762 8 10.5C8 10.2239 7.77614 10 7.5 10C7.22386 10 7 10.2239 7 10.5C7 10.7762 7.22386 11 7.5 11ZM4 10.5C4 10.7762 3.77614 11 3.5 11C3.22386 11 3 10.7762 3 10.5C3 10.2239 3.22386 10 3.5 10C3.77614 10 4 10.2239 4 10.5ZM9.36222 8.00003L9.45135 8.62395C9.79139 8.98247 10 9.46689 10 10V13C10 13.5523 9.55229 14 9 14C8.44772 14 8 13.5523 8 13H3C3 13.5523 2.55228 14 2 14C1.44772 14 1 13.5523 1 13V10C1 9.46689 1.20861 8.98247 1.54865 8.62395L1.63778 8.00003H1C0.723858 8.00003 0.5 7.77617 0.5 7.50003C0.5 7.22389 0.723858 7.00003 1 7.00003H1.75C1.76024 7.00003 1.77042 7.00034 1.78051 7.00095L1.88237 6.2879C1.98794 5.54893 2.62082 5.00003 3.3673 5.00003L7.63271 5.00004C8.37918 5.00004 9.01206 5.54893 9.11763 6.2879L9.21949 7.00095C9.22958 7.00034 9.23976 7.00003 9.25 7.00003H10C10.2761 7.00003 10.5 7.22389 10.5 7.50003C10.5 7.77617 10.2761 8.00003 10 8.00003H9.36222ZM2.87232 6.42932L2.64341 8.03173C2.75912 8.0109 2.87829 8.00003 3 8.00003H8C8.12171 8.00003 8.24088 8.0109 8.35659 8.03173L8.12768 6.42933C8.09249 6.183 7.88153 6.00004 7.6327 6.00004L3.3673 6.00003C3.11847 6.00003 2.90751 6.183 2.87232 6.42932ZM9 10C9 9.44775 8.55228 9.00003 8 9.00003H3C2.44772 9.00003 2 9.44775 2 10V12H9V10Z" fill="#212121"/>
</svg>

<svg xmlns="http://www.w3.org/2000/svg" width="16" height="16"><path d="M8.9 1.199A.5.5 0 0 0 8 1.5v2a.5.5 0 0 0 1 0v-.508l.61.81a.5.5 0 0 0 .586.162l1.488-.598-.658 1.976A.5.5 0 0 0 11.5 6h1.577l-1.385 1.11a.5.5 0 0 0 0 .78L13.077 9H11.5a.5.5 0 0 0 0 1h3a.5.5 0 0 0 .313-.89L12.804 7.5l2.009-1.61A.5.5 0 0 0 14.5 5h-2.306l.78-2.342a.5.5 0 0 0-.66-.622l-2.136.858L8.9 1.199ZM7.5 11a.5.5 0 1 0 0-1 .5.5 0 0 0 0 1ZM4 10.5a.5.5 0 1 1-1 0 .5.5 0 0 1 1 0ZM9.362 8l.09.624c.34.358.548.843.548 1.376v3a1 1 0 1 1-2 0H3a1 1 0 1 1-2 0v-3c0-.533.209-1.018.549-1.376L1.638 8H1a.5.5 0 0 1 0-1h.78l.102-.712A1.5 1.5 0 0 1 3.367 5h4.266a1.5 1.5 0 0 1 1.485 1.288L9.219 7H10a.5.5 0 0 1 0 1h-.638Zm-6.49-1.57-.229 1.602A1.92 1.92 0 0 1 3 8h5c.122 0 .24.01.357.032l-.23-1.603A.5.5 0 0 0 7.634 6H3.367a.5.5 0 0 0-.495.43ZM9 10a1 1 0 0 0-1-1H3a1 1 0 0 0-1 1v2h7v-2Z"/></svg>
